-----BEGIN PGP PUBLIC KEY BLOCK-----

mDMEZoHxgBYJKwYBBAHaRw8BAQdA04cBaC9lu9ryYKQBzZmRYQ1CaPbzBJDD9aMW
qWSipIa0JUFwZWxlZyBMaW1pdGVkIChAYXBlbGVnaHEvY21zLWVwLXNmeCmIlgQT
FgoAPgIbAwULCQgHAgYVCgkICwIEFgIDAQIeAQIXgBYhBEFohI6BTFoAIBf8MbgB
Vqxj+96dBQJqvcZbBQkGHQhbAAoJELgBVqxj+96de+IBAOZBSJX/h4Ily63TJm5L
+92o4BxW+40PohSGth8GLNHCAQDeM957uTzMm1IB2Upn0HCZ2HntO3OGx/3rjzg7
q9MHC4kCMwQQAQoAHRYhBPinipKccqRuI6UAFLOQEkLDMu6CBQJmso7RAAoJELOQ
EkLDMu6CepMQAM6VGNFbBOdd+UTEt4R5SK57iFoE6PcICntYHUQTOi223jdzs+ik
EjDBa8CpcWi45xBlmsZQuldhb68xQ/B6pd6kvK5isR7wSDetYCDxbGDNzcHcAf9/
9aQ0B4rdMfh99yQquD/kebEaHaQvY0EqY26yXHhHQx3rvOQZ6gaqP5uFsU2FNVcv
raHJRWFdUgSnDAaWkzY/PvCOoSsVRGfgznYrm9C13713Tbt+xOYd6rrEZ8Tz4A3I
LXBYP0ostyNjlpBAVLnAOMkJ2RHUkSBQX859w3D/BxtFfxbWLEsQrePuJsXDokhm
kVHGh7a5WmRB6WDwqsAx3rFPQx1Z24ZmPo8detMZ1mlLb2u8qkBgjmaUV57tFJfz
xIXSTEC0pxd/R/FegTveybCp/yFyk67Ae/XrXOPZfFf6w/uL+ThPkX9Z9y55hyVF
n2Pwg2PMbAnaybDw2mmTMOdv0K/EAwp2EI9ujrwUZMdCQU5XPm9kWZHuk+LnAsKo
WiAcXVqPagMik+pzEd1Pn9uU3m5ZtxX9F2pIpXinvsqMhx71pHEQ+MwV1OPRC6IO
hHXPPtxfq3rIncbYs9OKhXIt9rNCSBQIJOUDhdanyr3JEZNCCLosS9rchMPTP3oy
bK9e7r49065rXOXOMizj4YWVdYkveO6Ya4vkZfCobn7cZ4VBckRoA+bmiHUEEBYI
AB0WIQR6zf8ix3O3R11+kKfxiO39gPd0HAUCZrKO0QAKCRDxiO39gPd0HOyeAQDg
8SRIPyGK/qovmyjqO24hm4JFaK5Nhit13jn6aIBjOgEA6aFiCKCBcIzx0b8RP4ng
6KvUrkNdAK+Fa8PHnYzqbww=
=GTnO
-----END PGP PUBLIC KEY BLOCK-----
